!!!OTL: ES FUHR EIN MANN DEN RHEIN AUS
!!!ARE: Europa, Mitteleuropa, Deutschland
!!!SCT: E0148
!!!YEM: Copyright 1995, estate of Helmut Schaffrath.
**kern
*ICvox
*Ivox
*M4/4
*k[f#c#]
*D:
{4d
=1
4a
4a
4b
4b
=2
2a
4a}
{4g
=3
4f#
4d
2e
=4
2d
4r}
{4d
=5
4a
4a
4b
4cc#
=6
4dd
8b
8cc#
4dd}
{4cc#
=7
4b
4a
2b
=8
2a
4r}
{4a
=9
4.dd
8cc#
4b
4a
=10
4.dd
8cc#
4b}
{4a
=11
4a
4a
4a
4g
=12
2f#
4f#}
{4g
=13
8f#
8e
8f#
8d
2e
=14
4.d
8e
4f#}
{4g
=15
4f#
4d
2e
=16
2d
4r}
==
!!!AGN: erzaehlendes Volks - Lied, Scherz, Schwank, Ballade ?
!!!ONB: ESAC (Essen Associative Code) Database: ERK1
!!!AMT: simple quadruple
!!!AIN: vox
!!!EED: Helmut Schaffrath
!!!EEV: 1.0
*-
